src/icons/svg/face.svg

<?xml version="1.0" encoding="UTF-8"?>
<svg width="40px" height="40px" viewBox="0 0 40 40" version="1.1" xmlns="http://www.w3.org/2000/svg"
>
    <path d="M8.36362174,10.2485419 C9.44217484,10.2269707 10.4049053,9.56690528 10.8138203,8.56864148 C11.2227354,7.57037769 10.9997248,6.42460169 10.2462471,5.65258266 C9.75098703,5.14567057 9.07231233,4.85977885 8.36362174,4.85952411 L8.35656189,4.85952411 C7.65155764,4.85853252 6.97573042,5.14090449 6.48099634,5.64316954 C5.72102548,6.41442263 5.49390752,7.56442021 5.90361988,8.56667907 C6.31333225,9.56893793 7.28100352,10.2305189 8.36362174,10.2485419 L8.36362174,10.2485419 Z"
          id="路径"></path>
    <path d="M16.5142129,10.2485419 C17.6030788,10.2617914 18.5926949,9.61777704 19.0215535,8.61683519 C19.4504121,7.61589334 19.2340453,6.4551695 18.4733557,5.67596755 C17.7126661,4.8967656 16.5574792,4.6525572 15.5465168,5.057229 C14.5355544,5.4619008 13.8679356,6.43574863 13.8549779,7.52461828 L13.8549779,7.55638756 C13.8484762,9.03307849 15.0375536,10.2368879 16.5142129,10.2485419 L16.5142129,10.2485419 Z"
          id="路径"></path>
    <path d="M38.0467406,0 L1.95092905,0 C0.867259281,0.00712649042 -0.00580869324,0.890726046 2.91060571e-05,1.97440337 L2.91060571e-05,38.0313858 C-0.00515943226,39.1147984 0.867531764,39.9980166 1.95092905,40.0057906 L20.8324849,40.0057906 C21.2938296,40.0063877 21.7360538,39.8215269 22.0597213,39.4927737 C22.5609596,38.9900482 22.7122109,38.2359409 22.4436055,37.5788078 C22.1750001,36.9216747 21.5388238,36.4894311 20.828955,36.4817498 L3.47703227,36.4817498 L3.47703227,15.1139518 L36.5171075,15.1139518 L36.5171075,17.2201389 C36.5246707,17.6861898 36.7162841,18.1303269 37.0501258,18.4556118 C37.3806923,18.7803247 37.8282071,18.958058 38.2914819,18.9486243 C39.2357613,18.9264262 39.9919677,18.1587621 39.9999823,17.2142557 L39.9999823,1.97675664 C40.0045346,0.892308721 39.1311655,0.00841713 38.0467406,0 L38.0467406,0 Z M36.5171075,3.52403937 L36.5171075,11.5875591 L3.47703227,11.5875591 L3.47703227,3.52403937 L36.5171075,3.52403937 Z"
          id="形状"></path>
    <path d="M39.1327801,31.9881583 L37.373702,30.9633041 C37.6643526,29.8444525 37.6643526,28.6698973 37.373702,27.5510457 L39.1316035,26.5261915 C39.4268784,26.3529303 39.5517591,25.9902769 39.4257637,25.6719502 C39.1259817,24.950844 38.7370129,24.2701485 38.2679491,23.6457746 C38.0601863,23.3773252 37.6854508,23.3047958 37.3925283,23.4763384 L35.6334502,24.5035458 C34.8256111,23.6896393 33.8187519,23.1014258 32.7130276,22.7974166 L32.7130276,20.7441783 C32.7158588,20.4011009 32.4643756,20.1088773 32.1247072,20.06055 C31.3571751,19.9617295 30.5801399,19.9617295 29.8126079,20.06055 C29.4724081,20.1079046 29.2204152,20.4007204 29.2242875,20.7441783 L29.2242875,22.7974166 C28.1189203,23.1014612 27.1124504,23.6896842 26.3050415,24.5035458 L24.5483167,23.477515 C24.2535747,23.3047685 23.8763365,23.3784006 23.6681893,23.6493046 C23.1981937,24.273065 22.8091552,24.9538824 22.5103747,25.6754801 C22.3832524,25.9931521 22.5078772,26.3560152 22.8033583,26.5285448 L24.5624364,27.5545756 C24.4093035,28.1425326 24.3364748,28.7485148 24.3459345,29.3560127 C24.3531372,29.8995431 24.4270338,30.440134 24.5659663,30.9656574 L22.801005,31.9916883 C22.5044005,32.1656047 22.3797882,32.5304338 22.5080215,32.8494594 C22.8078046,33.5709317 23.19677,34.2520164 23.6658361,34.8768116 C23.8745126,35.1439155 24.2484301,35.215784 24.5412569,35.0450713 L26.3062182,34.0143339 C27.1122289,34.8260547 28.1153484,35.4143839 29.2172276,35.7216398 L29.2172276,37.774878 C29.2143964,38.1179555 29.4658797,38.410179 29.8055481,38.4585064 C30.5731559,38.5561371 31.3500395,38.5561371 32.1176474,38.4585064 C32.4575809,38.4106639 32.709318,38.1181454 32.7059678,37.774878 L32.7059678,35.7216398 C33.8116064,35.4174272 34.8184162,34.8292426 35.6263904,34.0155105 L37.3831152,35.0403647 C37.6775742,35.2133678 38.0547565,35.1402509 38.2632425,34.8697518 C38.7311029,34.2473249 39.1189018,33.568578 39.4175272,32.8494594 C39.5492533,32.5314684 39.428089,32.1649712 39.1327801,31.9881583 L39.1327801,31.9881583 Z M34.0932273,29.3195368 C34.0863919,31.0200577 32.7201633,32.4025012 31.0198414,32.4293987 L30.9280634,32.4293987 C29.1838907,32.4170517 27.7799686,30.9931111 27.7923155,29.2489384 C27.8046625,27.5047657 29.2286031,26.1008435 30.9727758,26.1131905 L31.0186648,26.1131905 C32.7524085,26.1511327 34.1280401,27.5857275 34.0932273,29.3195368 L34.0932273,29.3195368 Z"
          id="形状"></path>
</svg>

<svg width="40" height="40" xmlns="http://www.w3.org/2000/svg"><path d="M8.364 10.249a2.706 2.706 0 0 0 1.882-4.596 2.633 2.633 0 0 0-1.882-.793h-.007a2.627 2.627 0 0 0-1.876.783 2.706 2.706 0 0 0 1.883 4.606zM16.514 10.249a2.692 2.692 0 1 0-2.659-2.724v.031a2.68 2.68 0 0 0 2.66 2.693z"/><path d="M38.047 0H1.95A1.964 1.964 0 0 0 0 1.974v36.057a1.965 1.965 0 0 0 1.95 1.975h18.882a1.72 1.72 0 0 0 1.228-.513 1.765 1.765 0 0 0-1.231-3.011H3.477V15.114h33.04v2.106c.008.466.2.91.533 1.236.33.324.778.502 1.241.493A1.75 1.75 0 0 0 40 17.214V1.977A1.969 1.969 0 0 0 38.047 0zm-1.53 3.524v8.064H3.477V3.524h33.04z"/><path d="M39.133 31.988l-1.76-1.025a6.786 6.786 0 0 0 0-3.412l1.759-1.025a.694.694 0 0 0 .294-.854 9.347 9.347 0 0 0-1.158-2.026.675.675 0 0 0-.875-.17l-1.76 1.028a6.568 6.568 0 0 0-2.92-1.707v-2.053a.685.685 0 0 0-.588-.683 9.053 9.053 0 0 0-2.312 0 .682.682 0 0 0-.589.683v2.053a6.564 6.564 0 0 0-2.919 1.707l-1.757-1.026a.678.678 0 0 0-.88.171 9.243 9.243 0 0 0-1.158 2.026.69.69 0 0 0 .293.854l1.76 1.026a6.732 6.732 0 0 0 .003 3.41l-1.765 1.027a.694.694 0 0 0-.293.857c.3.722.689 1.403 1.158 2.028a.678.678 0 0 0 .875.168l1.765-1.03c.806.811 1.81 1.4 2.911 1.707v2.053a.685.685 0 0 0 .589.684 9.163 9.163 0 0 0 2.312 0 .684.684 0 0 0 .588-.684v-2.053a6.573 6.573 0 0 0 2.92-1.706l1.757 1.024c.295.173.672.1.88-.17a9.295 9.295 0 0 0 1.155-2.02.694.694 0 0 0-.285-.862zm-5.04-2.668a3.123 3.123 0 0 1-3.073 3.11h-.092a3.158 3.158 0 0 1 .045-6.317h.046a3.144 3.144 0 0 1 3.074 3.207z"/></svg>
